component-icons/svg/chunkprogressbar.svg

<?xml version="1.0" encoding="utf-8"?>
<!-- Generator: Adobe Illustrator 24.2.3, SVG Export Plug-In . SVG Version: 6.00 Build 0)  -->
<svg version="1.1" id="Layer_1" xmlns="http://www.w3.org/2000/svg" xmlns:xlink="http://www.w3.org/1999/xlink" x="0px" y="0px"
	 width="24px" height="24px" viewBox="0 0 24 24" enable-background="new 0 0 24 24" xml:space="preserve">
<path d="M0,14h6v-4H0V14z M0,22h6v-4H0V22z M14,2H8v4h6V2z M24,3h-8v2h6L24,3z M0,6h6V2H0V6z M8,13h14l2-2H8V13z M16,21h6l2-2h-8V21
	z M8,22h6v-4H8V22z"/>
</svg>

<svg id="Layer_1" data-name="Layer 1" xmlns="http://www.w3.org/2000/svg" viewBox="0 0 24 24">
  <defs>
    <style>
      .cls-1 {
        fill: gray;
      }
    </style>
  </defs>
  <title>chunkprogressbar</title>
  <path class="cls-1" d="M0,14H6V10H0Zm0,8H6V18H0ZM14,2H8V6h6ZM24,3H16V5h6ZM0,6H6V2H0Zm8,7H22l2-2H8Zm8,8h6l2-2H16ZM8,22h6V18H8Z"/>
</svg>
